X:36
T:Kalamatianos
S:Ian McArdle
R:Other
O:Greece
M:7/8
K:E
"E"B|\
ED E FG AF|G3 B3 A|G2 E FG AF|G3 z2 GA | \
|:B2 B "A"cB AG|"B7"F3 B3 A|"E"G2 E "B7"FG AF\
|1 "E"G3 z2 GA :|2 "E"E3 z4||  \
"Em"B2 ^A =GF E2|"B7"F2 F F2F2|\
"Em"B2 ^A =GF ED|ED =C "B"B3z| \
"Em"B2 ^A =GF E2|"B7"F2 F F2F2|\
"Em"B2 ^A =GF ED| E3-E2z2 ||
|:B2 ^A =GF GA|B3-B2z2|\
e2 =d c2 B2| =d2 c B^A =Gz :| \
B2 ^A "B7"=GF GB| "Em"E3-E2 z2 ||
